X:702
%%etbk:tnset id:511,pos:3,rep:3x,ant:
%%etbk:wsite https://thesession.org/tunes/1902
%%etbk:video src:ytube,cde:v9YFwAcEpn8,desc:
%%etbk:video src:ytube,cde:0LheAUk6E9s,desc:
%%etbk:pldat 2016-08-18T18:06,2016-08-17T15:22,2016-08-16T15:21,2016-08-15T18:33,2016-08-12T16:24,2016-08-11T18:03,2016-08-10T15:17,2016-08-09T16:06,2016-08-08T18:03,2016-08-06T10:48,2016-08-03T15:45,2016-08-02T15:50,2016-06-09T18:30,2016-06-08T15:52,2016-06-07T15:50,2016-06-06T18:04,2016-06-04T14:53,2016-06-04T14:47,2016-06-02T18:09,2016-06-01T18:20,2016-05-31T16:34,2016-05-30T17:55,2016-05-29T11:24,2016-05-26T18:34,2016-05-25T16:40,2016-05-24T15:50,2016-05-18T17:31,2016-05-17T17:18,2016-05-16T15:40,2016-05-15T15:00,2016-05-14T17:14,2016-05-13T15:54,2016-05-12T18:43,2016-05-11T15:51,2016-05-10T19:28,2016-05-09T19:20,2016-05-03T18:09,2016-04-30T17:31,2016-04-28T18:10,2016-04-23T16:24,2016-04-20T10:34,2016-04-18T18:16,2016-04-11T17:55,2016-03-25T16:57,2016-03-20T15:40,2016-03-17T17:36,2016-03-16T15:54,2016-03-15T17:11,2016-03-14T18:53,2016-02-10T17:18,2016-01-30T13:52,2016-01-27T17:12,2016-01-26T16:57,2016-01-25T19:08,2016-01-24T14:38,2016-01-21T19:08,2016-01-20T17:07,2016-01-14T18:24,2016-01-12T18:21,2016-01-04T18:43,2016-01-01T15:51,2015-12-29T16:53,2015-12-27T14:03,2015-12-24T14:57,2015-12-23T17:28,2015-12-21T19:11,2015-07-19T15:54,2015-05-19T17:57,2015-05-17T15:45,2015-05-02T17:04,2015-04-28T17:28
T: Muireann's
Z: Piano Box Version by Martin Fleischmann
H: Created 2015-04-28 /  Last Modified 2015-12-23
R: jig
M: 6/8
L: 1/8
K: Bmin
!3!dBA !2!~B3|!3!def ede|!3!f2e ede|faf e !4!(3gfe|!1!d!2!BA !2!BA!2!B|!1!def ede|!3!f!5!ba fed|f2e edB:|
|:!2!BAB !5!e3|BAB !4!fef|B!5!ba fed|f2e edB|BAB e2B|BAB !4!f!3!f!4!a|!5!baf aba|ffe edB:|
|:!2!B!1!A!3!F !2!E2!4!G|!3!FDE FDE|!3!F!4!A!1!A ABB|!2!Bdd !5!edB|BAF !1!EEE|FDE FDE|!3!F!1!AB !4!d!5!e!3!f|1 fed edB:|2 !3!fed efg|| 
|:!3!fef b2b|fef ~a3|fba fed|f2e ede|fef b2f|fef afa|baf a2b|1 ffe ede:|2 ffe edB||


